svg/UnitedNationsOCHA-Humanitarian/telecommunications_computer_icon_box.svg

<svg xmlns="http://www.w3.org/2000/svg" viewBox="0 0 32 32" enable-background="new 0 0 32 32"><path fill="#407cca" d="m25.6 0h-19.2c-3.52 0-6.4 2.88-6.4 6.4v19.2c0 3.52 2.88 6.4 6.4 6.4h19.2c3.521 0 6.4-2.88 6.4-6.4v-19.2c0-3.52-2.88-6.4-6.4-6.4m-21.05 4.991c0-.547.442-.991.99-.991h20.917c.549 0 .991.444.991.991v14.569c0 .547-.442.99-.991.99h-20.917c-.548 0-.99-.443-.99-.99v-14.569m21.646 23.01l-20.381-.013c-1.25 0-2.01-.99-1.683-2.196l.466-1.707c.325-1.212 1.617-2.196 2.867-2.196h17c1.252 0 2.552.984 2.894 2.188l.492 1.74c.341 1.203-.407 2.187-1.659 2.184m-.727-9.432h-18.94v-12.587h18.939v12.587z"/></svg>

<?xml version="1.0" encoding="utf-8"?>
<!-- Generator: Adobe Illustrator 16.0.3, SVG Export Plug-In . SVG Version: 6.00 Build 0)  -->
<!DOCTYPE svg PUBLIC "-//W3C//DTD SVG 1.1//EN" "http://www.w3.org/Graphics/SVG/1.1/DTD/svg11.dtd">
<svg version="1.1" id="Layer_1" xmlns="http://www.w3.org/2000/svg" xmlns:xlink="http://www.w3.org/1999/xlink" x="0px" y="0px"
	 width="32px" height="32px" viewBox="0 0 32 32" enable-background="new 0 0 32 32" xml:space="preserve">
<path fill="#407CCA" d="M25.6,0H6.4C2.88,0,0,2.88,0,6.4v19.2C0,29.12,2.88,32,6.4,32h19.2c3.521,0,6.4-2.88,6.4-6.4V6.4
	C32,2.88,29.12,0,25.6,0z M4.552,4.991C4.552,4.444,4.994,4,5.542,4h20.917c0.549,0,0.991,0.444,0.991,0.991V19.56
	c0,0.547-0.442,0.99-0.991,0.99H5.542c-0.548,0-0.99-0.443-0.99-0.99V4.991z M26.198,28L5.817,27.987
	c-1.25,0-2.008-0.99-1.683-2.196L4.6,24.084c0.325-1.212,1.617-2.196,2.867-2.196h17.004c1.252,0,2.552,0.984,2.894,2.188
	l0.492,1.74C28.198,27.019,27.45,28.003,26.198,28z M25.471,18.568H6.531V5.981h18.939V18.568z"/>
</svg>
